icons/op-ifc-24.svg

<svg width="24" height="24" viewBox="0 0 24 24" fill="none" xmlns="http://www.w3.org/2000/svg">
<path d="M14.3734 6.07826L17.7843 9.47514L13.7197 13.5118C13.864 13.7109 14.0521 13.8745 14.2697 13.99C14.4873 14.1055 14.7286 14.1698 14.975 14.1779C15.2214 14.1861 15.4665 14.138 15.6913 14.0373C15.9162 13.9365 16.1149 13.7858 16.2722 13.5967C16.9706 12.8527 17.698 12.1375 18.4254 11.4223L18.426 11.4217C18.7167 11.1359 19.0077 10.8498 19.2965 10.5622C19.459 10.4182 19.589 10.2417 19.6781 10.0441C19.7672 9.84647 19.8132 9.63233 19.8132 9.41573C19.8132 9.19914 19.7672 8.985 19.6781 8.7874C19.589 8.5898 19.459 8.41322 19.2965 8.26928L17.6422 6.62179C17.3584 6.3391 17.0745 6.05461 16.7903 5.76976C16.363 5.34152 15.9349 4.9124 15.5047 4.48741C15.2552 4.20933 14.9084 4.03683 14.5353 4.00525C14.1621 3.97367 13.791 4.08541 13.498 4.31757C12.9867 4.79972 12.5009 5.30805 12.0427 5.8405L13.3502 7.13697L14.3734 6.07826Z" fill="black"/>
<path d="M9.68353 17.9277L6.27268 14.5308L10.3484 10.4769C9.64346 9.65036 8.66566 9.54846 7.97782 10.2165C6.84095 11.3149 5.73626 12.4284 4.66373 13.5569C4.39522 13.8344 4.24519 14.2047 4.24519 14.5901C4.24519 14.9755 4.39522 15.3458 4.66373 15.6233C5.97132 16.9482 7.29781 18.2693 8.64322 19.5865C8.90072 19.8383 9.24326 19.9854 9.60386 19.999C9.96446 20.0126 10.3172 19.8918 10.5931 19.6601C10.9545 19.3437 11.2853 18.9886 11.6109 18.6393C11.7514 18.4885 11.8908 18.3388 12.0313 18.1938L10.6897 16.8577L9.68353 17.9277Z" fill="black"/>
<path d="M13.5094 10.313L9.46187 6.28769L6.05103 9.68457L7.13682 10.7036L5.86912 11.9605C5.32133 11.5047 4.79941 11.019 4.30579 10.5055C4.08781 10.2298 3.97998 9.88347 4.00307 9.53329C4.02616 9.18312 4.17854 8.85384 4.43086 8.60887C5.74214 7.28409 7.06863 5.96302 8.41034 4.64569C8.69072 4.37286 9.06717 4.22011 9.45917 4.22011C9.85117 4.22011 10.2276 4.37286 10.508 4.64569C11.6071 5.74778 12.7042 6.84984 13.7994 7.95185C13.9578 8.11609 14.0775 8.31339 14.1498 8.52942C14.2221 8.74545 14.2452 8.97481 14.2174 9.20084C14.1897 9.42687 14.1117 9.64392 13.9893 9.83623C13.8668 10.0285 13.7029 10.1916 13.5094 10.313Z" fill="black"/>
<path d="M14.6294 17.7409L10.5591 13.6929C10.3592 13.8201 10.1914 13.9914 10.0686 14.1935C9.94589 14.3956 9.87146 14.6232 9.85113 14.8585C9.8308 15.0938 9.8651 15.3307 9.95138 15.5507C10.0377 15.7707 10.1736 15.968 10.3487 16.1274L13.4583 19.2242C13.6007 19.3846 13.7757 19.513 13.9717 19.601C14.1677 19.6889 14.3803 19.7344 14.5952 19.7344C14.8102 19.7344 15.0227 19.6889 15.2188 19.601C15.4148 19.513 15.5898 19.3846 15.7322 19.2242L17.5115 17.4522L17.5154 17.4484C18.1906 16.7816 18.8658 16.1148 19.5296 15.4423C19.7959 15.1994 19.9615 14.8663 19.9941 14.5082C20.0267 14.1501 19.9239 13.7927 19.7059 13.5061C19.2332 13.0063 18.7342 12.5319 18.2108 12.085L16.9601 13.3136C17.1001 13.4423 17.2337 13.5761 17.3676 13.7101C17.5164 13.8591 17.6656 14.0084 17.8242 14.1515C18.0004 14.31 17.9891 14.4119 17.8242 14.5761C16.8123 15.5725 15.8061 16.5746 14.7999 17.5767L14.6294 17.7409Z" fill="black"/>
<path d="M10.2521 7.49938L13.2764 10.5056L11.9576 11.8134L11.8885 11.7421C11.7396 11.5881 11.5707 11.4135 11.3891 11.2473L10.1214 9.97909C9.93668 9.82406 9.79052 9.6285 9.69443 9.40776C9.59834 9.18702 9.55493 8.9471 9.56759 8.70684C9.58026 8.46657 9.64867 8.2325 9.76745 8.023C9.88622 7.81349 10.0521 7.63428 10.2521 7.49938Z" fill="black"/>
<path d="M12.5977 12.7487C12.4149 12.572 12.2332 12.3963 12.0541 12.221L10.7864 13.4551L13.7993 16.4501C13.9753 16.3252 14.1227 16.1646 14.2319 15.9789C14.341 15.7931 14.4094 15.5865 14.4325 15.3725C14.4556 15.1585 14.4329 14.9421 14.3659 14.7375C14.2989 14.5329 14.1891 14.3448 14.0437 14.1855C13.5733 13.6923 13.0818 13.2169 12.5977 12.7487Z" fill="black"/>
<path d="M7.51767 13.7325L10.5249 10.7433L11.8267 12.0171L11.6448 12.2096L9.93939 13.908C9.7823 14.0808 9.58774 14.2157 9.37049 14.3024C9.15324 14.3891 8.919 14.4254 8.68556 14.4085C8.45213 14.3916 8.22563 14.3219 8.02327 14.2048C7.82091 14.0877 7.64799 13.9261 7.51767 13.7325Z" fill="black"/>
<path d="M13.5491 13.2118L16.5052 10.2735C16.3786 10.0867 16.2114 9.93067 16.016 9.81705C15.8206 9.70343 15.602 9.63511 15.3765 9.61716C15.1509 9.59921 14.9242 9.63209 14.7131 9.71337C14.5021 9.79465 14.3121 9.92222 14.1574 10.0866C13.7611 10.4775 13.3596 10.8786 12.9668 11.2711C12.7736 11.4641 12.5825 11.6551 12.3951 11.8417C12.3608 11.8757 12.3286 11.9116 12.2985 11.9493L13.5491 13.2118Z" fill="black"/>
</svg>

<svg xmlns="http://www.w3.org/2000/svg" width="24" height="24" viewBox="0 0 24 24"><path d="m14.373 6.078 3.411 3.397-4.064 4.037a1.613 1.613 0 0 0 1.255.666 1.62 1.62 0 0 0 1.297-.581 77.475 77.475 0 0 1 2.153-2.175h.001c.291-.286.582-.572.871-.86a1.535 1.535 0 0 0 .381-1.775 1.545 1.545 0 0 0-.381-.518l-1.655-1.647-.852-.852c-.427-.428-.855-.858-1.285-1.283a1.473 1.473 0 0 0-2.007-.169c-.511.482-.997.99-1.455 1.522l1.307 1.297 1.023-1.059Zm-4.689 11.85-3.411-3.397 4.075-4.054c-.705-.827-1.682-.929-2.37-.261a109.734 109.734 0 0 0-3.314 3.341 1.483 1.483 0 0 0 0 2.066 330.896 330.896 0 0 0 3.979 3.964 1.459 1.459 0 0 0 1.95.073 14.21 14.21 0 0 0 1.018-1.021c.14-.151.28-.3.42-.445l-1.341-1.336-1.006 1.07Z"/><path d="M13.509 10.313 9.462 6.288 6.051 9.685l1.086 1.019-1.268 1.256a18.86 18.86 0 0 1-1.563-1.455 1.416 1.416 0 0 1 .125-1.896A391.7 391.7 0 0 1 8.41 4.646a1.505 1.505 0 0 1 2.098 0c1.099 1.102 2.196 2.204 3.291 3.306a1.52 1.52 0 0 1 .418 1.249 1.529 1.529 0 0 1-.708 1.112Zm1.12 7.428-4.07-4.048c-.2.127-.368.298-.49.501a1.526 1.526 0 0 0-.118 1.357c.087.22.223.417.398.576l3.109 3.097a1.518 1.518 0 0 0 1.761.377c.196-.088.371-.216.513-.377l1.78-1.772.003-.004c.676-.666 1.351-1.333 2.015-2.006a1.44 1.44 0 0 0 .176-1.936c-.473-.5-.972-.974-1.495-1.421l-1.251 1.229c.14.128.274.262.408.396.148.149.298.298.456.442.176.158.165.26 0 .424-1.012.996-2.018 1.999-3.024 3.001l-.171.164Z"/><path d="m10.252 7.499 3.024 3.007-1.318 1.307-.069-.071a11.793 11.793 0 0 0-.5-.495l-1.268-1.268a1.549 1.549 0 0 1-.354-1.956 1.56 1.56 0 0 1 .485-.524Zm2.346 5.25-.544-.528-1.268 1.234 3.013 2.995a1.523 1.523 0 0 0 .567-1.712 1.533 1.533 0 0 0-.322-.553 51.468 51.468 0 0 0-1.446-1.436Zm-5.08.983 3.007-2.989 1.302 1.274-.182.193-1.706 1.698a1.552 1.552 0 0 1-1.916.297 1.534 1.534 0 0 1-.505-.473Zm6.031-.52 2.956-2.938a1.505 1.505 0 0 0-1.792-.561 1.514 1.514 0 0 0-.556.374c-.396.39-.797.792-1.19 1.184l-.572.571c-.034.034-.066.07-.096.107l1.25 1.263Z"/></svg>
